public/images/well/shape/5.svg

<svg width="100%" height="100%" preserveAspectRatio="none" viewBox="0 0 132 132" fill="none" xmlns="http://www.w3.org/2000/svg">
<path d="M122.303 65.666C126.767 63.1881 129.067 61.0895 130.181 59.8304C129.689 59.2735 128.946 58.547 127.873 57.6834C122.174 53.0827 118.865 46.1575 118.865 38.8367C118.865 31.516 122.174 24.5907 127.873 19.99C128.987 19.0941 129.737 18.3435 130.23 17.7785C125.128 11.7491 102.414 0.0537109 65.1148 0.0537109C27.8153 0.0537109 5.10135 11.7491 0 17.7785C0.492377 18.3435 1.24308 19.0941 2.35699 19.99C8.05564 24.5907 11.365 31.516 11.365 38.8367C11.365 46.1575 8.05564 53.0827 2.35699 57.6834C1.28344 58.547 0.548926 59.2735 0.0484778 59.8304C1.16238 61.0895 3.46284 63.1881 7.92651 65.666C15.4978 69.8712 20.2278 77.7892 20.3731 86.4256L21.1076 86.8292L20.3731 87.2328C20.2278 95.8691 15.4978 103.787 7.92651 107.992C3.39019 110.511 1.08969 112.633 0 113.884C5.10942 119.914 27.8234 131.609 65.1148 131.609C102.406 131.609 125.112 119.922 130.221 113.884C129.132 112.633 126.823 110.511 122.295 107.992C114.724 103.787 109.994 95.8691 109.848 87.2328L109.114 86.8292L109.848 86.4256C109.994 77.7892 114.724 69.8712 122.295 65.666H122.303Z" fill="#0E0E0E"/>
</svg>

<svg preserveAspectRatio="none" viewBox="0 0 132 132" fill="none" xmlns="http://www.w3.org/2000/svg"><path d="M122.303 65.666c4.464-2.478 6.764-4.576 7.878-5.836-.492-.556-1.235-1.283-2.308-2.147a24.217 24.217 0 0 1 0-37.693c1.114-.896 1.864-1.646 2.357-2.211C125.128 11.748 102.414.053 65.115.053 27.815.054 5.1 11.749 0 17.779c.492.564 1.243 1.315 2.357 2.211a24.218 24.218 0 0 1 0 37.693c-1.074.864-1.808 1.59-2.309 2.147 1.114 1.26 3.415 3.358 7.879 5.836a24.205 24.205 0 0 1 12.446 20.76l.735.403-.735.404a24.204 24.204 0 0 1-12.446 20.759C3.39 110.511 1.09 112.633 0 113.884c5.11 6.03 27.823 17.725 65.115 17.725 37.291 0 59.997-11.687 65.106-17.725-1.089-1.251-3.398-3.373-7.926-5.892a24.207 24.207 0 0 1-12.447-20.76l-.734-.403.734-.403a24.207 24.207 0 0 1 12.447-20.76h.008Z" fill="#0E0E0E"/></svg>
